source/img/icon-entry.svg

<svg width="24" height="24" fill="none" xmlns="http://www.w3.org/2000/svg"><path d="M13 16l5-4-5-4v3H4v2h9v3z" fill="#000"/><path d="M20 3h-9c-1.103 0-2 .897-2 2v4h2V5h9v14h-9v-4H9v4c0 1.103.897 2 2 2h9c1.103 0 2-.897 2-2V5c0-1.103-.897-2-2-2z" fill="#000"/></svg>

<svg width="24" height="24" viewBox="0 0 24 24" fill="none" xmlns="http://www.w3.org/2000/svg">
<path d="M13 16L18 12L13 8V11H4V13H13V16Z" fill="#000000"/>
<path d="M20 3H11C9.897 3 9 3.897 9 5V9H11V5H20V19H11V15H9V19C9 20.103 9.897 21 11 21H20C21.103 21 22 20.103 22 19V5C22 3.897 21.103 3 20 3Z" fill="#000000"/>
</svg>
